svg/business/exchange_dollar_fill.svg

<?xml version="1.0" encoding="UTF-8"?>
<svg width="24px" height="24px" viewBox="0 0 24 24" version="1.1" xmlns="http://www.w3.org/2000/svg" xmlns:xlink="http://www.w3.org/1999/xlink">
    <title>exchange_dollar_fill</title>
    <g id="Icon" stroke="none" stroke-width="1" fill="none" fill-rule="evenodd">
        <g id="Business" transform="translate(-576.000000, -144.000000)" fill-rule="nonzero">
            <g id="exchange_dollar_fill" transform="translate(576.000000, 144.000000)">
                <rect id="矩形" x="0" y="0" width="24" height="24"></rect>
                <path d="M3.99018,10.7455 L6.66803,12.5498 C8.13166,13.536 7.15501,15.8178 5.43108,15.4396 L5.3226,15.4158 C6.25591,17.2387 7.92737,18.6734 10.0589,19.2446 C13.4097,20.1424 16.8425,18.6226 18.4973,15.751 C18.911,15.0332 19.8281,14.7867 20.5459,15.2003 C21.2637,15.6139 21.5102,16.5311 21.0966,17.2489 C18.7804,21.268 13.9784,23.4006 9.28245,22.1423 C5.07774,21.0157 2.15942,17.4917 1.59696,13.4405 C1.53488,12.9934 1.50144,12.5397 1.49799599,12.0821 C1.48848,10.7681 2.94723,10.0428 3.99018,10.7455 Z M12,6 C12.51285,6 12.9355092,6.38604429 12.9932725,6.88337975 L13,7 L13,8 L15,8 C15.5523,8 16,8.44772 16,9 C16,9.51283143 15.613973,9.93550653 15.1166239,9.9932722 L15,10 L10,10 C9.72386,10 9.5,10.2239 9.5,10.5 C9.5,10.7454222 9.67687704,10.9496 9.91012499,10.9919429 L10,11 L14,11 C15.3807,11 16.5,12.1193 16.5,13.5 C16.5,14.825472 15.4684531,15.9100378 14.1643744,15.9946823 L14,16 L13,16 L13,17 C13,17.5523 12.5523,18 12,18 C11.48715,18 11.0644908,17.613973 11.0067275,17.1166239 L11,17 L11,16 L9,16 C8.44772,16 8,15.5523 8,15 C8,14.48715 8.38604429,14.0644908 8.88337975,14.0067275 L9,14 L14,14 C14.2761,14 14.5,13.7761 14.5,13.5 C14.5,13.2545778 14.3230914,13.0504 14.0898645,13.0080571 L14,13 L10,13 C8.61929,13 7.5,11.8807 7.5,10.5 C7.5,9.1745184 8.53153766,8.08996147 9.83562452,8.00531769 L10,8 L11,8 L11,7 C11,6.44772 11.4477,6 12,6 Z M14.7179,1.85789 C18.9226,2.98453 21.841,6.50852 22.4034,10.5598 C22.4655,11.0068 22.4989,11.4605 22.5023938,11.9181 C22.5119,13.2321 21.0531,13.9574 20.0102,13.2547 L17.3322,11.4503 C15.8687,10.4642 16.8451,8.18249 18.569,8.56053 L18.6777,8.58437 C17.7444,6.76147 16.073,5.3268 13.9415,4.75566 C10.5908,3.85785 7.15812,5.37756 5.50321,8.24899 C5.08954,8.96675 4.17234,9.21326 3.45459,8.79959 C2.73683,8.38592 2.49032,7.46872 2.90399,6.75097 C5.22025,2.73205 10.0221,0.59964 14.7179,1.85789 Z" id="形状" fill="#09244B"></path>
            </g>
        </g>
    </g>
</svg>

<svg xmlns="http://www.w3.org/2000/svg" width="24" height="24"><g fill="none" fill-rule="nonzero"><path d="M0 0h24v24H0z"/><path fill="#09244B" d="m3.99 10.746 2.678 1.804c1.464.986.487 3.268-1.237 2.89l-.108-.024a7.504 7.504 0 0 0 13.175.335 1.5 1.5 0 0 1 2.599 1.498c-2.317 4.019-7.119 6.152-11.815 4.893a10.502 10.502 0 0 1-7.784-10.06c-.01-1.314 1.45-2.04 2.492-1.337M12 6a1 1 0 0 1 .993.883L13 7v1h2a1 1 0 0 1 .117 1.993L15 10h-5a.5.5 0 0 0-.09.992L10 11h4a2.5 2.5 0 0 1 .164 4.995L14 16h-1v1a1 1 0 0 1-1.993.117L11 17v-1H9a1 1 0 0 1-.117-1.993L9 14h5a.5.5 0 0 0 .09-.992L14 13h-4a2.5 2.5 0 0 1-.164-4.995L10 8h1V7a1 1 0 0 1 1-1m2.718-4.142a10.502 10.502 0 0 1 7.784 10.06c.01 1.314-1.449 2.04-2.492 1.337l-2.678-1.805c-1.463-.986-.487-3.268 1.237-2.89l.109.024A7.504 7.504 0 0 0 5.504 8.25a1.5 1.5 0 1 1-2.6-1.498C5.22 2.732 10.022.6 14.718 1.858"/></g></svg>
